docs-site/src/assets/images/docs/bolt-logo.svg

<svg height="183" viewBox="0 0 666 183" width="666" xmlns="http://www.w3.org/2000/svg"><g fill="none" fill-rule="evenodd"><g fill="#fff" transform="translate(231)"><path d="m284.772501 0h42.421441c.903495 0 1.635922.73409167 1.635922 1.63963964v176.53962836c0 .905548-.732427 1.63964-1.635922 1.63964h-42.421441c-.903495 0-1.635922-.734092-1.635922-1.63964v-176.53962836c0-.90554797.732427-1.63963964 1.635922-1.63963964zm-202.7650798 46.2876165c11.8642806 0 22.6461848 2.7465327 32.3460358 8.2396804 9.699851 5.4931478 17.395485 13.3692341 23.087133 23.6284954 5.691648 10.2592612 8.53743 22.1743667 8.53743 35.7456727s-2.845782 25.526801-8.53743 35.866844-13.387282 18.296909-23.087133 23.870839c-9.699851 5.573929-20.4817552 8.360852-32.3460358 8.360852-17.1551084 0-29.9811652-5.089163-38.4785554-15.267643v11.446911c0 .905548-.732427 1.63964-1.6359216 1.63964h-40.25702256c-.90349458 0-1.63592164-.734092-1.63592164-1.63964v-176.53962836c0-.90554797.73242706-1.63963964 1.63592164-1.63963964h42.42144126c.9034946 0 1.6359217.73409167 1.6359217 1.63963964v58.21921526c8.8180463-9.0475375 20.9226375-13.5712384 36.3141366-13.5712384zm-9.6196388 99.1185085c8.0164058 0 14.5897599-2.786923 19.7202596-8.360852s7.6957111-13.288455 7.6957111-23.143808c0-9.69379-2.5652114-17.2871455-7.6957111-22.7802932-5.1304997-5.4931478-11.7038538-8.2396805-19.7202596-8.2396805s-14.58976 2.7465327-19.7202597 8.2396805c-5.1304997 5.4931477-7.6957111 13.0865032-7.6957111 22.7802932 0 9.855353 2.5652114 17.569879 7.6957111 23.143808s11.7038539 8.360852 19.7202597 8.360852z"/><path d="m208.171028 182c-37.720898 0-68.299728-30.648327-68.299728-68.454955 0-37.8066276 30.57883-68.4549549 68.299728-68.4549549 37.720899 0 68.299728 30.6483273 68.299728 68.4549549 0 37.806628-30.578829 68.454955-68.299728 68.454955zm-.40898-36.891892c17.166397 0 31.082511-13.947742 31.082511-31.153153 0-17.2054114-13.916114-31.1531532-31.082511-31.1531532s-31.082511 13.9477418-31.082511 31.1531532c0 17.205411 13.916114 31.153153 31.082511 31.153153z"/><path d="m395.012155 57.3184048 37.62129-.1131206c.90349-.0027166 1.638111.7291695 1.640822 1.6347134l.000007 37.1181477c0 .9036276-.729439 1.6369214-1.631014 1.6396323l-37.631105.1131501v33.4945583c0 7.244384 5.859417 13.117117 13.087373 13.117117h24.538825c.903494 0 1.635921.734092 1.635921 1.63964v34.432432c0 .905548-.732427 1.63964-1.635921 1.63964h-37.626198c-25.297848 0-45.805806-20.554567-45.805806-45.90991v-89.945946c0-1.1611466.61265-2.23572 1.610754-2.8252252l41.728586-24.645946c.778395-.4597397 1.781257-.1999842 2.239954.5801802.1483.2522325.226512.5396626.226512.8324324z"/></g><g transform="matrix(-1 0 0 -1 204 183)"><path d="m131.25 133h-52.5c-.9664983 0-1.75-.783502-1.75-1.75v-31.5c0-.9664983.7835017-1.75 1.75-1.75h52.5c.966498 0 1.75.7835017 1.75 1.75v31.5c0 .966498-.783502 1.75-1.75 1.75z" fill="#ffcc4c"/><path d="m202.933253 103.249029-16.658934 28.875485c-.312534.541726-.89041.875486-1.515825.875486h-36.008494c-.966498 0-1.75-.783502-1.75-1.75v-31.5c0-.9664983.783502-1.75 1.75-1.75h51.151603c1.932997 0 3.5 1.5670034 3.5 3.5 0 .613998-.161522 1.217192-.46835 1.749029z" fill="#f63"/><path d="m63 99.75v31.5c0 .966498-.7835017 1.75-1.75 1.75h-36.0084939c-.6254151 0-1.2032908-.33376-1.5158248-.875486l-16.65893404-28.875485c-.96596181-1.674334-.39171285-3.8147167 1.28262097-4.7806786.5318362-.3068285 1.1350306-.4683504 1.74902857-.4683504h51.1516032c.9664983 0 1.75.7835017 1.75 1.75z" fill="#e1e2eb"/><path d="m119 180.25v-31.5c0-.966498.783502-1.75 1.75-1.75h53.91234c.966498 0 1.75.783502 1.75 1.75 0 .306999-.080761.608596-.234175.874514l-14.637462 25.3716c-2.500272 4.333805-7.123277 7.003886-12.126598 7.003886h-28.664105c-.966498 0-1.75-.783502-1.75-1.75z" fill="#f63"/><path d="m103.25 182h-42.6641051c-5.0033211 0-9.6263263-2.670081-12.1265982-7.003886l-14.6374615-25.3716c-.4829809-.837167-.1958565-1.907358.6413105-2.390339.2659181-.153414.5675153-.234175.8745142-.234175h67.9123401c.966498 0 1.75.783502 1.75 1.75v31.5c0 .966498-.783502 1.75-1.75 1.75z" fill="#ffcc4c"/><path d="m161.540703 7.00388565 14.637462 25.37160005c.482981.8371669.195856 1.9073582-.641311 2.3903391-.265918.1534143-.567515.2341752-.874514.2341752h-67.91234c-.966498 0-1.75-.7835017-1.75-1.75v-31.5c0-.96649831.783502-1.75 1.75-1.75h42.664105c5.003321 0 9.626326 2.67008102 12.126598 7.00388565z" fill="#6c79d9"/><path d="m89.25 35h-53.9123401c-.9664983 0-1.75-.7835017-1.75-1.75 0-.306999.080761-.6085962.2341753-.8745143l14.6374615-25.37160005c2.5002719-4.33380463 7.1232771-7.00388565 12.1265982-7.00388565h28.6641051c.9664983 0 1.75.78350169 1.75 1.75v31.5c0 .9664983-.7835017 1.75-1.75 1.75z" fill="#12b3b3"/><path d="m133 82.25v-31.5c0-.9664983.783502-1.75 1.75-1.75h50.008494c.625415 0 1.203291.3337601 1.515825.8754857l16.658934 28.8754857c.965962 1.6743338.391713 3.8147163-1.282621 4.7806782-.531836.3068285-1.135031.4683504-1.749029.4683504h-65.151603c-.966498 0-1.75-.7835017-1.75-1.75z" fill="#6c79d9"/><path d="m117.25 84h-107.1516032c-1.93299661 0-3.49999999-1.5670034-3.49999999-3.5 0-.613998.16152187-1.2171924.46835045-1.7490286l16.65893404-28.8754857c.312534-.5417256.8904097-.8754857 1.5158248-.8754857h92.0084939c.966498 0 1.75.7835017 1.75 1.75v31.5c0 .9664983-.783502 1.75-1.75 1.75z" fill="#12b3b3"/></g></g></svg>

<?xml version="1.0" encoding="UTF-8"?>
<svg width="666px" height="183px" viewBox="0 0 666 183" version="1.1" xmlns="http://www.w3.org/2000/svg" xmlns:xlink="http://www.w3.org/1999/xlink">
    <!-- Generator: Sketch 51.2 (57519) - http://www.bohemiancoding.com/sketch -->
    <title>Bolt Logo</title>
    <desc>Created with Sketch.</desc>
    <defs></defs>
    <g id="Main-Concepts" stroke="none" stroke-width="1" fill="none" fill-rule="evenodd">
        <g id="Bolt-homepage-dark" transform="translate(-387.000000, -254.000000)">
            <g id="Group-6" transform="translate(374.000000, 234.000000)">
                <g id="Light-Round" transform="translate(244.000000, 20.000000)" fill="#FFFFFF">
                    <g id="Lockup">
                        <g id="Group">
                            <path d="M284.772501,2.84217094e-14 L327.193942,2.84217094e-14 C328.097437,2.8255363e-14 328.829864,0.734091671 328.829864,1.63963964 L328.829864,178.179268 C328.829864,179.084816 328.097437,179.818908 327.193942,179.818908 L284.772501,179.818908 C283.869006,179.818908 283.136579,179.084816 283.136579,178.179268 L283.136579,1.63963964 C283.136579,0.734091671 283.869006,2.85880559e-14 284.772501,2.84217094e-14 Z M82.0074212,46.2876165 C93.8717018,46.2876165 104.653606,49.0341492 114.353457,54.5272969 C124.053308,60.0204447 131.748942,67.896531 137.44059,78.1557923 C143.132238,88.4150535 145.97802,100.330159 145.97802,113.901465 C145.97802,127.472771 143.132238,139.428266 137.44059,149.768309 C131.748942,160.108352 124.053308,168.065218 114.353457,173.639148 C104.653606,179.213077 93.8717018,182 82.0074212,182 C64.8523128,182 52.026256,176.910837 43.5288658,166.732357 L43.5288658,178.179268 C43.5288658,179.084816 42.7964388,179.818908 41.8929442,179.818908 L1.63592164,179.818908 C0.732427064,179.818908 1.10646173e-16,179.084816 0,178.179268 L0,1.63963964 C-1.10646173e-16,0.734091671 0.732427064,2.63796123e-14 1.63592164,2.62132658e-14 L44.0573629,0 C44.9608575,-1.66346463e-16 45.6932846,0.734091671 45.6932846,1.63963964 L45.6932846,59.8588549 C54.5113309,50.8113174 66.6159221,46.2876165 82.0074212,46.2876165 Z M72.3877824,145.406125 C80.4041882,145.406125 86.9775423,142.619202 92.108042,137.045273 C97.2385417,131.471344 99.8037531,123.756818 99.8037531,113.901465 C99.8037531,104.207675 97.2385417,96.6143195 92.108042,91.1211718 C86.9775423,85.628024 80.4041882,82.8814913 72.3877824,82.8814913 C64.3713766,82.8814913 57.7980224,85.628024 52.6675227,91.1211718 C47.537023,96.6143195 44.9718116,104.207675 44.9718116,113.901465 C44.9718116,123.756818 47.537023,131.471344 52.6675227,137.045273 C57.7980224,142.619202 64.3713766,145.406125 72.3877824,145.406125 Z" id="bolt"></path>
                            <path d="M208.171028,182 C170.45013,182 139.8713,151.351673 139.8713,113.545045 C139.8713,75.7384174 170.45013,45.0900901 208.171028,45.0900901 C245.891927,45.0900901 276.470756,75.7384174 276.470756,113.545045 C276.470756,151.351673 245.891927,182 208.171028,182 Z M207.762048,145.108108 C224.928445,145.108108 238.844559,131.160366 238.844559,113.954955 C238.844559,96.7495436 224.928445,82.8018018 207.762048,82.8018018 C190.595651,82.8018018 176.679537,96.7495436 176.679537,113.954955 C176.679537,131.160366 190.595651,145.108108 207.762048,145.108108 Z" id="Combined-Shape"></path>
                            <path d="M395.012155,57.3184048 L432.633445,57.2052842 C433.536935,57.2025676 434.271556,57.9344537 434.274267,58.8399976 L434.274274,95.9581453 C434.274274,96.8617729 433.544835,97.5950667 432.64326,97.5977776 L395.012155,97.7109277 L395.012155,131.205486 C395.012155,138.44987 400.871572,144.322603 408.099528,144.322603 L432.638353,144.322603 C433.541847,144.322603 434.274274,145.056695 434.274274,145.962243 L434.274274,180.394675 C434.274274,181.300223 433.541847,182.034315 432.638353,182.034315 L395.012155,182.034315 C369.714307,182.034315 349.206349,161.479748 349.206349,136.124405 L349.206349,46.178459 C349.206349,45.0173124 349.818999,43.942739 350.817103,43.3532338 L392.545689,18.7072878 C393.324084,18.2475481 394.326946,18.5073036 394.785643,19.287468 C394.933943,19.5397005 395.012155,19.8271306 395.012155,20.1199004 L395.012155,57.3184048 Z" id="Path"></path>
                        </g>
                    </g>
                </g>
                <g id="Bolt-Final" transform="translate(112.000000, 112.000000) rotate(-360.000000) translate(-112.000000, -112.000000) ">
                    <g id="Group-3" transform="translate(112.000000, 112.000000) rotate(-180.000000) translate(-112.000000, -112.000000) translate(7.000000, 21.000000)">
                        <path d="M131.25,133 L78.75,133 C77.7835017,133 77,132.216498 77,131.25 L77,99.75 C77,98.7835017 77.7835017,98 78.75,98 L131.25,98 C132.216498,98 133,98.7835017 133,99.75 L133,131.25 C133,132.216498 132.216498,133 131.25,133 Z" id="Path" fill="#FFCC4C"></path>
                        <path d="M202.933253,103.249029 L186.274319,132.124514 C185.961785,132.66624 185.383909,133 184.758494,133 L148.75,133 C147.783502,133 147,132.216498 147,131.25 L147,99.75 C147,98.7835017 147.783502,98 148.75,98 L199.901603,98 C201.8346,98 203.401603,99.5670034 203.401603,101.5 C203.401603,102.113998 203.240081,102.717192 202.933253,103.249029 Z" id="Path" fill="#FF6633"></path>
                        <path d="M63,99.75 L63,131.25 C63,132.216498 62.2164983,133 61.25,133 L25.2415061,133 C24.616091,133 24.0382153,132.66624 23.7256813,132.124514 L7.06674726,103.249029 C6.10078545,101.574695 6.67503441,99.4343123 8.34936823,98.4683504 C8.88120443,98.1615219 9.48439883,98 10.0983968,98 L61.25,98 C62.2164983,98 63,98.7835017 63,99.75 Z" id="Path" fill="#E1E2EB"></path>
                        <path d="M119,180.25 L119,148.75 C119,147.783502 119.783502,147 120.75,147 L174.66234,147 C175.628838,147 176.41234,147.783502 176.41234,148.75 C176.41234,149.056999 176.331579,149.358596 176.178165,149.624514 L161.540703,174.996114 C159.040431,179.329919 154.417426,182 149.414105,182 L120.75,182 C119.783502,182 119,181.216498 119,180.25 Z" id="Path" fill="#FF6633"></path>
                        <path d="M103.25,182 L60.5858949,182 C55.5825738,182 50.9595686,179.329919 48.4592967,174.996114 L33.8218352,149.624514 C33.3388543,148.787347 33.6259787,147.717156 34.4631457,147.234175 C34.7290638,147.080761 35.030661,147 35.3376599,147 L103.25,147 C104.216498,147 105,147.783502 105,148.75 L105,180.25 C105,181.216498 104.216498,182 103.25,182 Z" id="Path" fill="#FFCC4C"></path>
                        <path d="M161.540703,7.00388565 L176.178165,32.3754857 C176.661146,33.2126526 176.374021,34.2828439 175.536854,34.7658248 C175.270936,34.9192391 174.969339,35 174.66234,35 L106.75,35 C105.783502,35 105,34.2164983 105,33.25 L105,1.75 C105,0.783501688 105.783502,1.7754286e-16 106.75,0 L149.414105,2.48689958e-14 C154.417426,2.39499006e-14 159.040431,2.67008102 161.540703,7.00388565 Z" id="Path" fill="#6C79D9"></path>
                        <path d="M89.25,35 L35.3376599,35 C34.3711616,35 33.5876599,34.2164983 33.5876599,33.25 C33.5876599,32.943001 33.6684209,32.6414038 33.8218352,32.3754857 L48.4592967,7.00388565 C50.9595686,2.67008102 55.5825738,4.02771965e-15 60.5858949,3.10862447e-15 L89.25,0 C90.2164983,-1.7754286e-16 91,0.783501688 91,1.75 L91,33.25 C91,34.2164983 90.2164983,35 89.25,35 Z" id="Path" fill="#12B3B3"></path>
                        <path d="M133,82.25 L133,50.75 C133,49.7835017 133.783502,49 134.75,49 L184.758494,49 C185.383909,49 185.961785,49.3337601 186.274319,49.8754857 L202.933253,78.7509714 C203.899215,80.4253052 203.324966,82.5656877 201.650632,83.5316496 C201.118796,83.8384781 200.515601,84 199.901603,84 L134.75,84 C133.783502,84 133,83.2164983 133,82.25 Z" id="Path" fill="#6C79D9"></path>
                        <path d="M117.25,84 L10.0983968,84 C8.16540019,84 6.59839681,82.4329966 6.59839681,80.5 C6.59839681,79.886002 6.75991868,79.2828076 7.06674726,78.7509714 L23.7256813,49.8754857 C24.0382153,49.3337601 24.616091,49 25.2415061,49 L117.25,49 C118.216498,49 119,49.7835017 119,50.75 L119,82.25 C119,83.2164983 118.216498,84 117.25,84 Z" id="Path" fill="#12B3B3"></path>
                    </g>
                </g>
            </g>
        </g>
    </g>
</svg>
